src/gui/emoticons/dont-know.svg

<svg xmlns="http://www.w3.org/2000/svg" xmlns:xlink="http://www.w3.org/1999/xlink" width="16pt" height="16pt" version="1.1" viewBox="0 0 16 16"><defs><linearGradient id="linear0" x1="64" x2="64" y1="19.717" y2="107.7" gradientTransform="matrix(0.125,0,0,0.125,0,0)" gradientUnits="userSpaceOnUse"><stop offset=".349" style="stop-color:#fee133;stop-opacity:1"/><stop offset=".489" style="stop-color:#fddd32;stop-opacity:1"/><stop offset=".629" style="stop-color:#fcd12f;stop-opacity:1"/><stop offset=".769" style="stop-color:#f9bd2a;stop-opacity:1"/><stop offset=".9" style="stop-color:#f6a323;stop-opacity:1"/></linearGradient><clipPath id="clip1"><path d="M 2 4 L 6 4 L 6 7 L 2 7 Z M 2 4"/></clipPath><clipPath id="clip2"><path d="M 7.605469 6.945312 C 7.605469 8.554688 6.300781 9.859375 4.691406 9.859375 C 3.082031 9.859375 1.777344 8.554688 1.777344 6.945312 C 1.777344 5.335938 3.082031 4.03125 4.691406 4.03125 C 6.300781 4.03125 7.605469 5.335938 7.605469 6.945312 Z M 7.605469 6.945312"/></clipPath><clipPath id="clip3"><path d="M 9 4 L 12 4 L 12 7 L 9 7 Z M 9 4"/></clipPath><clipPath id="clip4"><path d="M 14.316406 6.945312 C 14.316406 8.554688 13.011719 9.859375 11.398438 9.859375 C 9.789062 9.859375 8.484375 8.554688 8.484375 6.945312 C 8.484375 5.335938 9.789062 4.03125 11.398438 4.03125 C 13.011719 4.03125 14.316406 5.335938 14.316406 6.945312 Z M 14.316406 6.945312"/></clipPath></defs><g id="surface1"><path style="stroke:none;fill-rule:nonzero;fill:url(#linear0)" d="M 8 14.984375 C 4.507812 14.984375 0.75 12.800781 0.75 8 C 0.75 3.199219 4.507812 1.015625 8 1.015625 C 9.933594 1.015625 11.726562 1.652344 13.046875 2.816406 C 14.488281 4.089844 15.25 5.882812 15.25 8 C 15.25 10.109375 14.488281 11.894531 13.046875 13.171875 C 11.722656 14.34375 9.929688 14.984375 8 14.984375 Z M 8 14.984375"/><path style="stroke:none;fill-rule:nonzero;fill:#eb8f00;fill-opacity:1" d="M 8 1.265625 C 9.875 1.265625 11.609375 1.882812 12.878906 3.003906 C 14.265625 4.230469 15 5.957031 15 8 C 15 10.035156 14.265625 11.757812 12.878906 12.984375 C 11.601562 14.113281 9.871094 14.734375 8 14.734375 C 6.121094 14.734375 4.386719 14.121094 3.121094 13.007812 C 1.734375 11.789062 1 10.058594 1 8 C 1 5.933594 1.734375 4.199219 3.121094 2.980469 C 4.382812 1.875 6.117188 1.265625 8 1.265625 M 8 0.765625 C 4.105469 0.765625 0.5 3.265625 0.5 8 C 0.5 12.710938 4.105469 15.234375 8 15.234375 C 11.894531 15.234375 15.5 12.644531 15.5 8 C 15.5 3.328125 11.894531 0.765625 8 0.765625 Z M 8 0.765625"/><path style="stroke:none;fill-rule:nonzero;fill:#fff;fill-opacity:1" d="M 7.605469 6.945312 C 7.605469 8.554688 6.300781 9.859375 4.691406 9.859375 C 3.082031 9.859375 1.777344 8.554688 1.777344 6.945312 C 1.777344 5.335938 3.082031 4.03125 4.691406 4.03125 C 6.300781 4.03125 7.605469 5.335938 7.605469 6.945312 Z M 7.605469 6.945312"/><g clip-path="url(#clip1)" clip-rule="nonzero"><g clip-path="url(#clip2)" clip-rule="nonzero"><path style="stroke:none;fill-rule:nonzero;fill:#242424;fill-opacity:1" d="M 5.054688 5.0625 C 5.054688 5.691406 4.546875 6.203125 3.917969 6.203125 C 3.285156 6.203125 2.777344 5.691406 2.777344 5.0625 C 2.777344 4.433594 3.285156 3.921875 3.917969 3.921875 C 4.546875 3.921875 5.054688 4.433594 5.054688 5.0625 Z M 5.054688 5.0625"/></g></g><path style="stroke:none;fill-rule:nonzero;fill:#eb8f00;fill-opacity:1" d="M 4.691406 4.53125 C 6.023438 4.53125 7.105469 5.613281 7.105469 6.945312 C 7.105469 8.277344 6.023438 9.359375 4.691406 9.359375 C 3.359375 9.359375 2.277344 8.277344 2.277344 6.945312 C 2.277344 5.613281 3.359375 4.53125 4.691406 4.53125 M 4.691406 4.03125 C 3.082031 4.03125 1.777344 5.335938 1.777344 6.945312 C 1.777344 8.554688 3.082031 9.859375 4.691406 9.859375 C 6.300781 9.859375 7.605469 8.554688 7.605469 6.945312 C 7.605469 5.335938 6.300781 4.03125 4.691406 4.03125 Z M 4.691406 4.03125"/><path style="stroke:none;fill-rule:nonzero;fill:#fff;fill-opacity:1" d="M 14.316406 6.945312 C 14.316406 8.554688 13.011719 9.859375 11.398438 9.859375 C 9.789062 9.859375 8.484375 8.554688 8.484375 6.945312 C 8.484375 5.335938 9.789062 4.03125 11.398438 4.03125 C 13.011719 4.03125 14.316406 5.335938 14.316406 6.945312 Z M 14.316406 6.945312"/><g clip-path="url(#clip3)" clip-rule="nonzero"><g clip-path="url(#clip4)" clip-rule="nonzero"><path style="stroke:none;fill-rule:nonzero;fill:#242424;fill-opacity:1" d="M 11.765625 5.0625 C 11.765625 5.691406 11.253906 6.203125 10.625 6.203125 C 9.996094 6.203125 9.484375 5.691406 9.484375 5.0625 C 9.484375 4.433594 9.996094 3.921875 10.625 3.921875 C 11.253906 3.921875 11.765625 4.433594 11.765625 5.0625 Z M 11.765625 5.0625"/></g></g><path style="stroke:none;fill-rule:nonzero;fill:#eb8f00;fill-opacity:1" d="M 11.398438 4.53125 C 12.734375 4.53125 13.816406 5.613281 13.816406 6.945312 C 13.816406 8.277344 12.730469 9.359375 11.398438 9.359375 C 10.070312 9.359375 8.984375 8.277344 8.984375 6.945312 C 8.984375 5.613281 10.066406 4.53125 11.398438 4.53125 M 11.398438 4.03125 C 9.789062 4.03125 8.484375 5.335938 8.484375 6.945312 C 8.484375 8.554688 9.789062 9.859375 11.398438 9.859375 C 13.011719 9.859375 14.316406 8.554688 14.316406 6.945312 C 14.316406 5.335938 13.011719 4.03125 11.398438 4.03125 Z M 11.398438 4.03125"/><path style="stroke:none;fill-rule:nonzero;fill:#242424;fill-opacity:1" d="M 6.582031 12.957031 C 6.476562 12.980469 6.371094 12.945312 6.300781 12.867188 C 6.214844 12.765625 6.199219 12.613281 6.253906 12.464844 C 6.382812 12.132812 6.910156 11.535156 7.78125 11.339844 C 8.65625 11.148438 9.386719 11.46875 9.640625 11.71875 C 9.757812 11.832031 9.804688 11.976562 9.765625 12.101562 C 9.738281 12.203125 9.65625 12.28125 9.546875 12.304688 C 9.515625 12.3125 9.480469 12.3125 9.441406 12.308594 C 8.996094 12.269531 8.503906 12.308594 8.015625 12.414062 C 7.53125 12.519531 7.070312 12.695312 6.683594 12.917969 C 6.648438 12.9375 6.617188 12.949219 6.582031 12.957031 Z M 6.582031 12.957031"/></g></svg>

<svg xmlns="http://www.w3.org/2000/svg" width="16pt" height="16pt" viewBox="0 0 16 16"><defs><clipPath id="b"><path d="M2 4h4v3H2Zm0 0"/></clipPath><clipPath id="c"><path d="M7.605 6.945a2.914 2.914 0 1 1-5.828 0 2.914 2.914 0 0 1 5.828 0m0 0"/></clipPath><clipPath id="d"><path d="M9 4h3v3H9Zm0 0"/></clipPath><clipPath id="e"><path d="M14.316 6.945a2.915 2.915 0 0 1-2.918 2.914 2.914 2.914 0 0 1 0-5.828 2.915 2.915 0 0 1 2.918 2.914m0 0"/></clipPath><linearGradient id="a" x1="64" x2="64" y1="19.717" y2="107.7" gradientTransform="scale(.125)" gradientUnits="userSpaceOnUse"><stop offset=".349" style="stop-color:#fee133;stop-opacity:1"/><stop offset=".489" style="stop-color:#fddd32;stop-opacity:1"/><stop offset=".629" style="stop-color:#fcd12f;stop-opacity:1"/><stop offset=".769" style="stop-color:#f9bd2a;stop-opacity:1"/><stop offset=".9" style="stop-color:#f6a323;stop-opacity:1"/></linearGradient></defs><path d="M8 14.984C4.508 14.984.75 12.801.75 8 .75 3.2 4.508 1.016 8 1.016c1.934 0 3.727.636 5.047 1.8C14.488 4.09 15.25 5.883 15.25 8c0 2.11-.762 3.895-2.203 5.172C11.723 14.344 9.93 14.984 8 14.984m0 0" style="stroke:none;fill-rule:nonzero;fill:url(#a)"/><path d="M8 1.266c1.875 0 3.61.617 4.879 1.738C14.266 4.23 15 5.957 15 8c0 2.035-.734 3.758-2.121 4.984-1.277 1.13-3.008 1.75-4.879 1.75-1.879 0-3.613-.613-4.879-1.726C1.734 11.789 1 10.058 1 8c0-2.066.734-3.8 2.121-5.02C4.383 1.875 6.117 1.266 8 1.266m0-.5C4.105.766.5 3.266.5 8c0 4.71 3.605 7.234 7.5 7.234s7.5-2.59 7.5-7.234C15.5 3.328 11.895.766 8 .766m0 0" style="stroke:none;fill-rule:nonzero;fill:#eb8f00;fill-opacity:1"/><path d="M7.605 6.945a2.914 2.914 0 1 1-5.828 0 2.914 2.914 0 0 1 5.828 0m0 0" style="stroke:none;fill-rule:nonzero;fill:#fff;fill-opacity:1"/><g clip-path="url(#b)"><g clip-path="url(#c)"><path d="M5.055 5.063a1.139 1.139 0 1 1-2.278 0 1.14 1.14 0 1 1 2.278 0m0 0" style="stroke:none;fill-rule:nonzero;fill:#242424;fill-opacity:1"/></g></g><path d="M4.691 4.531a2.416 2.416 0 0 1 2.414 2.414A2.416 2.416 0 0 1 4.691 9.36a2.416 2.416 0 0 1-2.414-2.414 2.416 2.416 0 0 1 2.414-2.414m0-.5a2.914 2.914 0 1 0 0 5.828 2.914 2.914 0 0 0 0-5.828m0 0" style="stroke:none;fill-rule:nonzero;fill:#eb8f00;fill-opacity:1"/><path d="M14.316 6.945a2.915 2.915 0 0 1-2.918 2.914 2.914 2.914 0 0 1 0-5.828 2.915 2.915 0 0 1 2.918 2.914m0 0" style="stroke:none;fill-rule:nonzero;fill:#fff;fill-opacity:1"/><g clip-path="url(#d)"><g clip-path="url(#e)"><path d="M11.766 5.063a1.142 1.142 0 0 1-2.281 0c0-.63.511-1.141 1.14-1.141s1.14.512 1.14 1.14m0 0" style="stroke:none;fill-rule:nonzero;fill:#242424;fill-opacity:1"/></g></g><path d="M11.398 4.531a2.416 2.416 0 0 1 2.418 2.414 2.42 2.42 0 0 1-2.418 2.414 2.42 2.42 0 0 1-2.414-2.414 2.416 2.416 0 0 1 2.414-2.414m0-.5a2.914 2.914 0 0 0 0 5.828 2.915 2.915 0 1 0 0-5.828m0 0" style="stroke:none;fill-rule:nonzero;fill:#eb8f00;fill-opacity:1"/><path d="M6.582 12.957a.29.29 0 0 1-.281-.09c-.086-.101-.102-.254-.047-.402.129-.332.656-.93 1.527-1.125.875-.192 1.606.129 1.86.379.117.113.164.258.125.383a.28.28 0 0 1-.22.203.3.3 0 0 1-.105.004c-.445-.04-.937 0-1.425.105a4.7 4.7 0 0 0-1.332.504.4.4 0 0 1-.102.039m0 0" style="stroke:none;fill-rule:nonzero;fill:#242424;fill-opacity:1"/></svg>
